X:1
T:Title
%%score 1 { 2 | 3 }
L:1/8
Q:1/4=90
M:4/4
K:F
V:1 treble nm="Grand Piano, Soprano"
V:2 treble nm="Choir Pad, Whispering in My Heart"
V:3 bass 
V:1
 [Fc][Fc][FA][FA] F2 [FA]2 | [Fd][Fc][FB][FA] [EB]4 | [GB][GB][EG][EG] [CE]2 [Ec]2 | %3
w: By~James~Bruce~Mackay * * * * *|||
 [Ec][EB][EA][EG] [FA]4 | [Fc][Fc][FA][FA] F2 [FA]2 | [^Fd][Fc][FB][FA] [GB]4 | %6
w: |||
 [EG][FA][EB][Fc] [Fe]2 [Fd]2 | [Fc][Fc][EB][EG] [CF]4 | [Fc]2 [FA]2 [CF]2 [FA]2 | %9
w: |||
 [Fd][Fc][FB][FA] [EB]4 | [EB]2 [EG]2 [CE]2 [Ec]2 | [Ec][EB][EA][EG] [FA]3 [Fc] | %12
w: |||
 [Fc][Fc][FA][FA] F2 [FA][FA] | [^Fd][Fc][FB][FA] [GB]3 [GB] | [EG][FA][EB][Fc] [Fe]2 [Fd]2 | %15
w: |||
 [Fc][Fc][EB][EG] [CF]4- | [CF]4 z4 |] %17
w: ||
V:2
 A,A,CC C2 C2 | B,A,DC C4 | CCCC[K:bass] G,2 G,2 | G,G,C[K:treble]C C4 | A,A,CC C2[K:bass] A,2 | %5
 A,A,DD[K:treble] D4 | CCCC C2[K:bass] B,2 | A,A,G,B, A,4 | A,2 C2 A,2 C2 | A,A,[K:treble]CC C4 | %10
 G,2 C2[K:bass] G,2 G,2 | G,CCC C3 A, | A,A,[K:treble]CC C2 CA, | A,A,DD D3 D | %14
 CCCC C2[K:bass] B,2 | A,A,G,B, A,4- | A,4 z4 |] %17
V:3
 F,F,F,F, A,2 F,2 | F,F,F,F, G,4 | C,C,C,C, C,2 C,2 | C,C,C,C, F,4 | F,F,F,F, A,2 F,2 | %5
 D,D,D,D, G,4 | B,A,G,F, B,,2 B,,2 | C,C,C,C, F,4 | F,2 F,2 F,2 F,2 | F,F,F,F, G,4 | %10
 C,2 C,2 C,2 C,2 | C,C,C,C, F,3 F, | F,F,F,F, A,2 F,F, | D,D,D,D, G,3 G, | B,A,G,F, B,,2 B,,2 | %15
 C,C,C,C, F,4- | F,4 z4 |] %17

